remix/Document/file-4-line.svg

<svg viewBox="0 0 24 24" fill="currentColor" xmlns="http://www.w3.org/2000/svg"><path d="M21 16L14.9968 22H4C3.44772 22 3 21.5523 3 21V3C3 2.44772 3.44772 2 4 2H20C20.5523 2 21 2.44772 21 3V16ZM19 15V4H5V20H14V15H19Z"/></svg>

<svg viewBox="0 0 24 24" xmlns="http://www.w3.org/2000/svg"><path fill="none" d="M0 0h24v24H0Z"/><path d="M21 16l-6.003 6H4v0c-.56 0-1-.45-1-1V3v0c0-.56.44-1 1-1h16v0c.55 0 1 .44 1 1v13Zm-2-1V4H5v16h9v-5h5Z"/></svg>
